X: 09073
T: MARIANNE O'DOHERTY
C: Bob McQuillen 26 Mar 92
B: Bob's Note Book 9 #73
%R: reel
Z: 2018 John Chambers <jc:trillian.mit.edu>
M: C
L: 1/8
K: D
fe \
| dAFA BAFD | GBAG FABA | dAde fdBd | AFGF EABc |
| dAFA BAFD | GBAG FABA | dAde fdBd | Addc d2  :|
|: dc \
| B2Bd cdef | dfed BAFA | B2Bd cdef | dBAF A2FA |
| B2Bd cded | fded BAde | fafd edBA | FBBA B2  :|
%%begintext align
%% Marianne was a real
%% good friend of Don Udell (you'll find his tune in Bk. 8)
%% We didn't meet too many times, Marianne, but I know
%% Donny would be pleased to know you have your own tune
%% in one of these little books, to go along with his. It
%% comes to you with much love, from Bob.
%%endtext

%%sep 1 1 500

%%sep 1 1 500

